X:532
T:Menzies Rant
R:Reel
N:"Old set."
B:The Athole Collection
M:C|
L:1/8
K:D
F|:D2dF ADDF|D2dA BEEF|D2dF D2fd|1 efdf eEEF:|2 D2dF ADD||
f|abaf beef|abaf defd|efdf eEEF|D2dF ADDf|abaf beef|abaf defd|
efdf eEEd|AdFd ADD||
d|AdFd ADDd|AdFA BEEd|AdFd Adfd|efdf eEEd|AdFd ADDd|
AdFd Adfd|efdf eEEF|D2dF ADD||
f|abaf beef|abaf defd|efdf eEEF|D2dF ADDf|abaf beef|abaf defd|
efdf eEEd|AdFd ADD||

